!!!COM: Edouard Lalo
!!!CNT: Francais
!!!TXO: Francais
!!!OTL: La Zuecca
!!!OPR: Six Me/lodies pour voix de contralto
!!!ONM: No. 3
!!!LYR: Alfred de Musset
!!!ENC: Jacob Pegg
!!!YOR: Romantic French Song 1830-1870, David Tunley, ed., New !!!YOR: York: Garland Publishing, Inc., 1995, vol. 3
!!!ODT: 1870/
!!NB: Vocal melody and text only encoded.
!!NB: First instance of melodic material only encoded.
**kern	**silbe
*clef G2	*
*k[b-e-a-]	*
*M2/4	*
=3	=3
{8g	{A
(16g	Saint~
16a-)	|
8g	~Blaise,
8g	a\
=4	=4
8g	la
(gq	Zu-
8cc)	-ec-
4cc}	-ca,}
=5	=5
{8g	{Vous
(16g	e/-
16a-)	|
8g	-tiez
8b-	bien
=6	=6
[4b-	ai-
8b-]}	-se,}
8r	.
=7	=7
{8a-	{A
(16a-	Saint~
16b-)	|
8a-	~Blaise,
8a-	a\
=8	=8
8f	la
(fq	Zuec-
8f)	|
4g	-ca,
=9	=9
8a-	nous
(16a-	e/-
16cc)	|
8a-	-tions
8a-	bien
=10	=10
2g}	la\!}
=11	=11
{8g	{Vous
(16g	e/-
16an)	|
8g	-tiez
8g	bien
=12	=12
(4f	ai-
4en)}	-se,}
=13	=13
4r	.
{8g	{a\
8g	Saint~
=14	=14
(4g	~Blai-
ccq)	|
4cc}	-se!}
!!melody partially repeats,
!!then repeats again in entirety.
*-	*-
